Numix/16/status/indicator-keyboard-Sr-1.svg

<?xml version="1.0" encoding="UTF-8" standalone="no"?>
<svg
   xmlns:dc="http://purl.org/dc/elements/1.1/"
   xmlns:cc="http://creativecommons.org/ns#"
   xmlns:rdf="http://www.w3.org/1999/02/22-rdf-syntax-ns#"
   xmlns:svg="http://www.w3.org/2000/svg"
   xmlns="http://www.w3.org/2000/svg"
   xmlns:sodipodi="http://sodipodi.sourceforge.net/DTD/sodipodi-0.dtd"
   xmlns:inkscape="http://www.inkscape.org/namespaces/inkscape"
   viewBox="0 0 16 16"
   id="svg2"
   version="1.1"
   inkscape:version="0.91 r13725"
   sodipodi:docname="indicator-keyboard-Sr-1.svg">
  <metadata
     id="metadata14">
    <rdf:RDF>
      <cc:Work
         rdf:about="">
        <dc:format>image/svg+xml</dc:format>
        <dc:type
           rdf:resource="http://purl.org/dc/dcmitype/StillImage" />
      </cc:Work>
    </rdf:RDF>
  </metadata>
  <defs
     id="defs12" />
  <sodipodi:namedview
     pagecolor="#ffffff"
     bordercolor="#666666"
     borderopacity="1"
     objecttolerance="10"
     gridtolerance="10"
     guidetolerance="10"
     inkscape:pageopacity="0"
     inkscape:pageshadow="2"
     inkscape:window-width="640"
     inkscape:window-height="480"
     id="namedview10"
     showgrid="false"
     inkscape:zoom="14.75"
     inkscape:cx="8"
     inkscape:cy="8"
     inkscape:window-x="65"
     inkscape:window-y="24"
     inkscape:window-maximized="0"
     inkscape:current-layer="svg2" />
  <path
     style="fill:#ececec;fill-opacity:1"
     d="M 1.5996094 0 C 0.71320937 2.9605947e-16 0 0.71320937 0 1.5996094 L 0 14.400391 C 2.9605947e-16 15.286791 0.71320937 16 1.5996094 16 L 14.400391 16 C 15.286791 16 16 15.286791 16 14.400391 L 16 1.5996094 C 16 0.71320937 15.286791 0 14.400391 0 L 1.5996094 0 z M 5.2910156 4.7246094 C 5.4590156 4.7246094 5.6231563 4.7357656 5.7851562 4.7597656 C 5.9471562 4.7837656 6.0983281 4.817375 6.2363281 4.859375 C 6.3803281 4.895375 6.5090469 4.936375 6.6230469 4.984375 C 6.7430469 5.032375 6.8419219 5.0846719 6.9199219 5.1386719 L 6.703125 5.6503906 C 6.529125 5.5303906 6.3164531 5.4352813 6.0644531 5.3632812 C 5.8184531 5.2912813 5.5516719 5.2558594 5.2636719 5.2558594 C 5.0656719 5.2558594 4.8828438 5.2763594 4.7148438 5.3183594 C 4.5528438 5.3543594 4.4110156 5.4178125 4.2910156 5.5078125 C 4.1710156 5.5918125 4.0759063 5.6980781 4.0039062 5.8300781 C 3.9379062 5.9620781 3.9042969 6.1225938 3.9042969 6.3085938 C 3.9042969 6.5005938 3.9397188 6.6629219 4.0117188 6.7949219 C 4.0837188 6.9269219 4.1845469 7.0407187 4.3105469 7.1367188 C 4.4425469 7.2327187 4.5955313 7.3184844 4.7695312 7.3964844 C 4.9435313 7.4744844 5.1319375 7.556625 5.3359375 7.640625 C 5.5819375 7.742625 5.8132969 7.8433125 6.0292969 7.9453125 C 6.2512969 8.0473125 6.4434687 8.1686406 6.6054688 8.3066406 C 6.7674688 8.4446406 6.8961875 8.6125469 6.9921875 8.8105469 C 7.0881875 9.0085469 7.1347656 9.2510625 7.1347656 9.5390625 C 7.1347656 10.103063 6.9370156 10.526594 6.5410156 10.808594 C 6.1510156 11.090594 5.6212188 11.230469 4.9492188 11.230469 C 4.7092187 11.230469 4.4890156 11.215547 4.2910156 11.185547 C 4.0930156 11.155547 3.9157656 11.120125 3.7597656 11.078125 C 3.6037656 11.030125 3.4732344 10.981594 3.3652344 10.933594 C 3.2572344 10.885594 3.1732812 10.844594 3.1132812 10.808594 L 3.3105469 10.277344 C 3.3705469 10.313344 3.4507344 10.354344 3.5527344 10.402344 C 3.6547344 10.450344 3.7760625 10.498875 3.9140625 10.546875 C 4.0520625 10.588875 4.2068594 10.624297 4.3808594 10.654297 C 4.5548594 10.684297 4.7470313 10.699219 4.9570312 10.699219 C 5.4430313 10.699219 5.8217969 10.613453 6.0917969 10.439453 C 6.3617969 10.259453 6.4960938 9.970219 6.4960938 9.5742188 C 6.4960938 9.3462187 6.4513281 9.1578125 6.3613281 9.0078125 C 6.2773281 8.8518125 6.1635313 8.7230938 6.0195312 8.6210938 C 5.8755312 8.5130937 5.7113906 8.4235625 5.5253906 8.3515625 C 5.3393906 8.2735625 5.1434531 8.1914219 4.9394531 8.1074219 C 4.6814531 8.0054219 4.4500937 7.9009687 4.2460938 7.7929688 C 4.0420938 7.6849688 3.8686094 7.5655937 3.7246094 7.4335938 C 3.5806094 7.2955937 3.4705781 7.1388438 3.3925781 6.9648438 C 3.3205781 6.7908437 3.2832031 6.5875156 3.2832031 6.3535156 C 3.2832031 5.8195156 3.4604531 5.4146719 3.8144531 5.1386719 C 4.1684531 4.8626719 4.6610156 4.7246094 5.2910156 4.7246094 z M 9.8222656 6.3535156 C 10.014265 6.3535156 10.195281 6.3684375 10.363281 6.3984375 C 10.537281 6.4284375 10.656656 6.4582812 10.722656 6.4882812 L 10.605469 6.9921875 C 10.557469 6.9681875 10.458594 6.9439219 10.308594 6.9199219 C 10.164594 6.8899219 9.9724217 6.875 9.7324219 6.875 C 9.4804219 6.875 9.2770938 6.8936875 9.1210938 6.9296875 C 8.9710937 6.9656875 8.8722188 6.9955312 8.8242188 7.0195312 L 8.8242188 11.095703 L 8.2382812 11.095703 L 8.2382812 6.6582031 C 8.3882812 6.5922031 8.595375 6.5269375 8.859375 6.4609375 C 9.123375 6.3889375 9.4442656 6.3535156 9.8222656 6.3535156 z M 12.619141 8.8417969 L 12.886719 8.8417969 L 12.886719 12.896484 L 12.507812 12.896484 L 12.507812 9.421875 C 12.464913 9.468675 12.408091 9.5157063 12.337891 9.5664062 C 12.271591 9.6171062 12.195175 9.66805 12.109375 9.71875 C 12.023575 9.76555 11.933444 9.812575 11.839844 9.859375 C 11.746244 9.902275 11.652194 9.9375437 11.558594 9.9648438 L 11.447266 9.671875 C 11.681266 9.5899751 11.890919 9.4880812 12.074219 9.3632812 C 12.257519 9.2345813 12.439741 9.0601969 12.619141 8.8417969 z "
     id="path4" />
</svg>

<svg xmlns="http://www.w3.org/2000/svg" viewBox="0 0 16 16">
 <path d="m 1.6 0 c -0.886 0 -1.6 0.713 -1.6 1.6 l 0 12.801 c 0 0.886 0.713 1.6 1.6 1.6 l 12.801 0 c 0.886 0 1.6 -0.713 1.6 -1.6 l 0 -12.801 c 0 -0.886 -0.713 -1.6 -1.6 -1.6 l -12.801 0 z m 3.691 4.725 c 0.168 0 0.332 0.011 0.494 0.035 c 0.162 0.024 0.313 0.058 0.451 0.1 c 0.144 0.036 0.273 0.077 0.387 0.125 c 0.12 0.048 0.219 0.1 0.297 0.154 l -0.217 0.512 c -0.174 -0.12 -0.387 -0.215 -0.639 -0.287 c -0.246 -0.072 -0.513 -0.107 -0.801 -0.107 c -0.198 0 -0.381 0.02 -0.549 0.063 c -0.162 0.036 -0.304 0.099 -0.424 0.189 c -0.12 0.084 -0.215 0.19 -0.287 0.322 c -0.066 0.132 -0.1 0.293 -0.1 0.479 c 0 0.192 0.035 0.354 0.107 0.486 c 0.072 0.132 0.173 0.246 0.299 0.342 c 0.132 0.096 0.285 0.182 0.459 0.26 c 0.174 0.078 0.362 0.16 0.566 0.244 c 0.246 0.102 0.477 0.203 0.693 0.305 c 0.222 0.102 0.414 0.223 0.576 0.361 c 0.162 0.138 0.291 0.306 0.387 0.504 c 0.096 0.198 0.143 0.441 0.143 0.729 c 0 0.564 -0.198 0.988 -0.594 1.27 c -0.39 0.282 -0.92 0.422 -1.592 0.422 c -0.24 0 -0.46 -0.015 -0.658 -0.045 c -0.198 -0.03 -0.375 -0.065 -0.531 -0.107 c -0.156 -0.048 -0.287 -0.097 -0.395 -0.145 c -0.108 -0.048 -0.192 -0.089 -0.252 -0.125 l 0.197 -0.531 c 0.06 0.036 0.14 0.077 0.242 0.125 c 0.102 0.048 0.223 0.097 0.361 0.145 c 0.138 0.042 0.293 0.077 0.467 0.107 c 0.174 0.03 0.366 0.045 0.576 0.045 c 0.486 0 0.865 -0.086 1.135 -0.26 c 0.27 -0.18 0.404 -0.469 0.404 -0.865 c 0 -0.228 -0.045 -0.416 -0.135 -0.566 c -0.084 -0.156 -0.198 -0.285 -0.342 -0.387 c -0.144 -0.108 -0.308 -0.198 -0.494 -0.27 c -0.186 -0.078 -0.382 -0.16 -0.586 -0.244 c -0.258 -0.102 -0.489 -0.206 -0.693 -0.314 c -0.204 -0.108 -0.377 -0.227 -0.521 -0.359 c -0.144 -0.138 -0.254 -0.295 -0.332 -0.469 c -0.072 -0.174 -0.109 -0.377 -0.109 -0.611 c 0 -0.534 0.177 -0.939 0.531 -1.215 c 0.354 -0.276 0.847 -0.414 1.477 -0.414 z m 4.531 1.629 c 0.192 0 0.373 0.015 0.541 0.045 c 0.174 0.03 0.293 0.06 0.359 0.09 l -0.117 0.504 c -0.048 -0.024 -0.147 -0.048 -0.297 -0.072 c -0.144 -0.03 -0.336 -0.045 -0.576 -0.045 c -0.252 0 -0.455 0.019 -0.611 0.055 c -0.15 0.036 -0.249 0.066 -0.297 0.09 l 0 4.076 l -0.586 0 l 0 -4.437 c 0.15 -0.066 0.357 -0.131 0.621 -0.197 c 0.264 -0.072 0.585 -0.107 0.963 -0.107 z m 2.797 2.488 l 0.268 0 l 0 4.055 l -0.379 0 l 0 -3.475 c -0.043 0.047 -0.1 0.094 -0.17 0.145 c -0.066 0.051 -0.143 0.102 -0.229 0.152 c -0.086 0.047 -0.176 0.094 -0.27 0.141 c -0.094 0.043 -0.188 0.078 -0.281 0.105 l -0.111 -0.293 c 0.234 -0.082 0.444 -0.184 0.627 -0.309 c 0.183 -0.129 0.366 -0.303 0.545 -0.521 z" style="fill:#ececec;fill-opacity:1"/>
</svg>
